Catalina-dark/actions/22/games-highscores.svg

<svg xmlns="http://www.w3.org/2000/svg" viewBox="0 0 22 22">
  <defs id="defs3051">
    <style type="text/css" id="current-color-scheme">
      .ColorScheme-Text {
        color:#f2f2f2
      }
      </style>
  </defs>
 <path 
     style="fill:currentColor;fill-opacity:1;stroke:none"      
	 class="ColorScheme-Text"
        d="M 7.8554688 3 C 7.5798243 3 7.3554687 3.2243971 7.3554688 3.5 L 7.3554688 4.609375 C 7.0248199 4.5217416 6.6919891 4.4962649 6.3730469 4.5410156 C 5.7247427 4.6319285 5.1772095 5.0116769 4.8320312 5.6113281 C 4.4099714 6.3446088 4.4611385 7.2947043 4.9746094 8.2851562 C 5.4175086 9.1395295 6.1712979 9.9655563 7.0957031 10.611328 C 7.292598 10.748901 7.3148105 10.896422 7.2988281 10.996094 C 7.2807286 11.109008 7.2068924 11.20037 7.1132812 11.228516 C 6.9725946 11.270859 6.7044429 11.186959 6.3730469 10.826172 C 6.1341827 10.566136 5.7307803 10.550157 5.4707031 10.789062 C 5.2106674 11.027968 5.1927349 11.431412 5.4316406 11.691406 C 6.0462364 12.360425 6.6340705 12.515625 7.0449219 12.515625 C 7.2324763 12.515625 7.3826253 12.483222 7.4824219 12.453125 C 7.6957142 12.388988 7.8896724 12.276694 8.0527344 12.130859 C 8.5182995 12.770819 9.1867273 13.255351 9.9628906 13.486328 L 9.9628906 15.322266 L 8.4101562 15.322266 C 7.6777473 15.322266 7.0820313 15.91794 7.0820312 16.650391 L 7.0820312 18.376953 C 7.0820312 18.720844 7.3611868 19 7.7050781 19 L 14.294922 19 C 14.638813 19 14.917969 18.720844 14.917969 18.376953 L 14.917969 16.650391 C 14.917969 15.91794 14.322253 15.322266 13.589844 15.322266 L 12.037109 15.322266 L 12.037109 13.486328 C 12.81319 13.255351 13.481659 12.770819 13.947266 12.130859 C 14.110369 12.276735 14.304244 12.388988 14.517578 12.453125 C 14.617375 12.483139 14.767482 12.515625 14.955078 12.515625 C 15.36593 12.515583 15.953805 12.360342 16.568359 11.691406 C 16.807265 11.431288 16.789333 11.027968 16.529297 10.789062 C 16.269261 10.550157 15.865859 10.566136 15.626953 10.826172 C 15.295516 11.186917 15.027571 11.270734 14.886719 11.228516 C 14.793066 11.20037 14.719271 11.109008 14.701172 10.996094 C 14.685189 10.896463 14.707402 10.74886 14.904297 10.611328 C 15.828702 9.9655147 16.582491 9.1395711 17.025391 8.2851562 C 17.53882 7.2947043 17.590029 6.3445673 17.167969 5.6113281 C 16.822832 5.0116769 16.275216 4.63197 15.626953 4.5410156 C 15.308052 4.4963064 14.975263 4.5217001 14.644531 4.609375 L 14.644531 3.5 C 14.644531 3.2243555 14.420093 3 14.144531 3 L 7.8554688 3 z M 6.5507812 5.8066406 C 6.7935891 5.7726832 7.0770429 5.8343754 7.3554688 5.9707031 L 7.3554688 9.1992188 C 6.819332 8.7439072 6.3784605 8.2162577 6.109375 7.6972656 C 5.9321157 7.3554084 5.6753927 6.7122026 5.9414062 6.25 C 6.0918068 5.9887605 6.2907871 5.8430888 6.5507812 5.8066406 z M 15.449219 5.8066406 C 15.709254 5.8430888 15.908276 5.9887605 16.058594 6.25 C 16.324649 6.7122026 16.067843 7.3554084 15.890625 7.6972656 C 15.621623 8.2162577 15.180668 8.7438657 14.644531 9.1992188 L 14.644531 5.9707031 C 14.922916 5.8342923 15.206452 5.7724757 15.449219 5.8066406 z "
     />
</svg>

<svg width="22" height="22" viewBox="4.549 3 12.9 16" xmlns="http://www.w3.org/2000/svg">
<defs>
<style id="current-color-scheme" type="text/css">.ColorScheme-Text {
        color:#f2f2f2
      }</style>
</defs>
<path class="ColorScheme-Text" d="m7.8555 3c-0.27564 0-0.5 0.2244-0.5 0.5v1.1094c-0.33065-0.087633-0.66348-0.11311-0.98242-0.068359-0.6483 0.090913-1.1958 0.47066-1.541 1.0703-0.42206 0.73328-0.37089 1.6834 0.14258 2.6738 0.4429 0.85437 1.1967 1.6804 2.1211 2.3262 0.19689 0.13757 0.21911 0.28509 0.20312 0.38477-0.0181 0.11291-0.091936 0.20428-0.18555 0.23242-0.14069 0.042343-0.40884-0.041557-0.74023-0.40234-0.23886-0.26004-0.64227-0.27602-0.90234-0.03711-0.26004 0.23891-0.27797 0.64235-0.039062 0.90234 0.6146 0.66902 1.2024 0.82422 1.6133 0.82422 0.18755 0 0.3377-0.032403 0.4375-0.0625 0.21329-0.064137 0.40725-0.17643 0.57031-0.32227 0.46557 0.63996 1.134 1.1245 1.9102 1.3555v1.8359h-1.5527c-0.73241 0-1.3281 0.59567-1.3281 1.3281v1.7266c0 0.34389 0.27916 0.62305 0.62305 0.62305h6.5898c0.34389 0 0.62305-0.27916 0.62305-0.62305v-1.7266c0-0.73245-0.59572-1.3281-1.3281-1.3281h-1.5527v-1.8359c0.77608-0.23098 1.4446-0.71551 1.9102-1.3555 0.1631 0.14588 0.35698 0.25813 0.57031 0.32227 0.099797 0.030014 0.2499 0.0625 0.4375 0.0625 0.41085-4.2e-5 0.99873-0.15528 1.6133-0.82422 0.23891-0.26012 0.22097-0.66344-0.039062-0.90234-0.26004-0.2389-0.66344-0.22293-0.90234 0.03711-0.33144 0.36074-0.59938 0.44456-0.74023 0.40234-0.093653-0.028146-0.16745-0.11951-0.18555-0.23242-0.015983-0.099631 0.00623-0.24723 0.20312-0.38477 0.9244-0.64581 1.6782-1.4718 2.1211-2.3262 0.51343-0.99045 0.56464-1.9406 0.14258-2.6738-0.34514-0.59965-0.89275-0.97936-1.541-1.0703-0.3189-0.044709-0.65169-0.019316-0.98242 0.068359v-1.1094c0-0.27564-0.22444-0.5-0.5-0.5h-6.2891zm-1.3047 2.8066c0.24281-0.033957 0.52626 0.027735 0.80469 0.16406v3.2285c-0.53614-0.45531-0.97701-0.98296-1.2461-1.502-0.17726-0.34186-0.43398-0.98506-0.16797-1.4473 0.1504-0.26124 0.34938-0.40691 0.60938-0.44336zm8.8984 0c0.26004 0.036448 0.45906 0.18212 0.60938 0.44336 0.26606 0.4622 0.009249 1.1054-0.16797 1.4473-0.269 0.51899-0.70996 1.0466-1.2461 1.502v-3.2285c0.27838-0.13641 0.56192-0.19823 0.80469-0.16406z" fill="currentColor"/>
</svg>
